X:1
T:Oro, Se Do Bheatha 'Bhaile
M:4/4
Q:1/4=100
K:D
E3EE2DE|F2E2DB,2D|D4D2D2|D2A,2B,D2E|
E3EE2DE|F2E2FA2F/2A/2|B2F2A2F2|E4E4|E4E2D3/2E/2|
F2E2D2B,7/4D/4|-D4D2D3/2D2D/2|A,2B,2D2|E4E2D3/2E/2|
F2E2F2A3/2A/2|B9/4F3/2A9/4F2|E4|E4||
P:G
K:G
A3AA2GA|B2A2GE2G|G4G2G2|G2D2EG2A|
A3AA2GA|B2A2Bd2B/2d/2|e2B2d2B2|A4A4|A4A2G3/2A/2|
B2A2G2E7/4G/4|-G4G2G3/2G2G/2|D2E2G2|A4A2G3/2A/2|
B2A2B2d3/2d/2|e9/4B3/2d9/4B2|A4|A4||
